Sources/FrostedUI/Resources/Icons.xcassets/gifFilled32.imageset/gif-filled-32.svg

<svg width="32" height="32" viewBox="0 0 32 32" fill="none" xmlns="http://www.w3.org/2000/svg" data-fui-icon="true">
  <path
    d="M16.0005 1.25049C18.1644 1.25049 19.8257 1.25036 21.1587 1.34131C22.4981 1.43274 23.5619 1.61876 24.5259 2.01807C26.9963 3.04153 28.9596 5.0046 29.9829 7.4751C30.3821 8.43907 30.5683 9.50295 30.6597 10.8423C30.7506 12.1752 30.7505 13.8366 30.7505 16.0005C30.7505 18.1644 30.7506 19.8257 30.6597 21.1587C30.5682 22.4981 30.3822 23.5619 29.9829 24.5259C28.9595 26.9964 26.9964 28.9595 24.5259 29.9829C23.5619 30.3822 22.4981 30.5682 21.1587 30.6597C19.8257 30.7506 18.1644 30.7505 16.0005 30.7505C13.8366 30.7505 12.1752 30.7506 10.8423 30.6597C9.50295 30.5683 8.43907 30.3821 7.4751 29.9829C5.0046 28.9596 3.04153 26.9963 2.01807 24.5259C1.61876 23.5619 1.43274 22.4981 1.34131 21.1587C1.25036 19.8257 1.24951 18.1644 1.24951 16.0005C1.24951 13.8366 1.25039 12.1753 1.34131 10.8423C1.43272 9.5028 1.61878 8.43916 2.01807 7.4751C3.04146 5.00441 5.00441 3.04146 7.4751 2.01807C8.43916 1.61878 9.5028 1.43272 10.8423 1.34131C12.1753 1.25039 13.8366 1.25049 16.0005 1.25049ZM10.2505 11.0005C8.17942 11.0005 6.50049 12.6794 6.50049 14.7505V17.2466C6.5009 19.3173 8.17967 20.9966 10.2505 20.9966H10.813C12.6074 20.9963 14.0626 19.541 14.063 17.7466V16.8257C14.063 16.1355 13.5031 15.5759 12.813 15.5757H11.2925C10.8783 15.5757 10.5425 15.9115 10.5425 16.3257C10.5429 16.7396 10.8785 17.0757 11.2925 17.0757H12.563V17.7466C12.5626 18.7126 11.779 19.4963 10.813 19.4966H10.2505C9.0081 19.4966 8.0009 18.4889 8.00049 17.2466V14.7505C8.00049 13.5078 9.00785 12.5005 10.2505 12.5005H10.4897C11.2985 12.5006 11.8233 12.8344 12.1567 13.1665C12.3272 13.3365 12.4489 13.508 12.5259 13.6343C12.5638 13.6966 12.5905 13.7477 12.606 13.7788C12.6134 13.7938 12.6184 13.8052 12.6206 13.8101L12.6226 13.813C12.7831 14.191 13.2187 14.3704 13.5991 14.2134C13.9816 14.0554 14.1638 13.6165 14.0063 13.2339L14.0054 13.2329V13.231L14.0034 13.228C14.0024 13.2256 14.0009 13.2215 13.9995 13.2183C13.9965 13.2113 13.9923 13.2019 13.9878 13.1919C13.9784 13.1712 13.9649 13.1433 13.9487 13.1108C13.9162 13.0454 13.8689 12.956 13.8062 12.853C13.6809 12.6478 13.4881 12.3758 13.2153 12.104C12.6605 11.5514 11.7725 11.0006 10.4897 11.0005H10.2505ZM16.6001 11.0005C16.1861 11.0007 15.8501 11.3364 15.8501 11.7505V20.2466C15.8505 20.6603 16.1863 20.9964 16.6001 20.9966C17.0138 20.9963 17.3497 20.6603 17.3501 20.2466V11.7505C17.3501 11.3364 17.0141 11.0008 16.6001 11.0005ZM20.7505 11.0005C20.0601 11.0005 19.5005 11.5601 19.5005 12.2505V20.2466C19.5009 20.6604 19.8365 20.9966 20.2505 20.9966C20.6642 20.9963 21.0001 20.6603 21.0005 20.2466V16.7485H24.0288C24.4426 16.7483 24.7784 16.4122 24.7788 15.9985C24.7788 15.5845 24.4428 15.2488 24.0288 15.2485H21.0005V12.5005H24.7144C25.128 12.5001 25.464 12.1641 25.4644 11.7505C25.4644 11.3365 25.1283 11.0009 24.7144 11.0005H20.7505Z"
    fill="currentColor"
  />
</svg>

<svg xmlns="http://www.w3.org/2000/svg" width="32" height="32" fill="none" data-fui-icon="true" viewBox="0 0 32 32"><path fill="currentColor" d="M16 1.25c2.164 0 3.826 0 5.159.091 1.34.092 2.403.278 3.367.677a10.09 10.09 0 0 1 5.457 5.457c.4.964.585 2.028.677 3.367.09 1.333.09 2.995.09 5.158s0 3.826-.09 5.159c-.092 1.34-.278 2.403-.677 3.367a10.08 10.08 0 0 1-5.457 5.457c-.964.4-2.028.585-3.367.677-1.333.09-2.995.09-5.158.09s-3.826 0-5.159-.09c-1.34-.092-2.403-.278-3.367-.677a10.09 10.09 0 0 1-5.457-5.457c-.4-.964-.585-2.028-.677-3.367-.09-1.333-.091-2.995-.091-5.158s0-3.826.091-5.159c.092-1.34.278-2.403.677-3.367a10.08 10.08 0 0 1 5.457-5.457c.964-.4 2.028-.585 3.367-.677 1.333-.09 2.995-.09 5.158-.09M10.25 11a3.75 3.75 0 0 0-3.75 3.75v2.497a3.75 3.75 0 0 0 3.75 3.75h.563a3.25 3.25 0 0 0 3.25-3.25v-.921c0-.69-.56-1.25-1.25-1.25h-1.52a.75.75 0 0 0 0 1.5h1.27v.67c0 .967-.784 1.75-1.75 1.75h-.562A2.25 2.25 0 0 1 8 17.247v-2.495a2.25 2.25 0 0 1 2.25-2.25h.239c.809 0 1.333.333 1.667.665a2.5 2.5 0 0 1 .449.613l.015.031.002.003a.75.75 0 0 0 1.383-.58v-.002l-.003-.003-.004-.01-.05-.107a4.032 4.032 0 0 0-.733-1.007c-.555-.553-1.443-1.103-2.726-1.103zm6.35 0a.75.75 0 0 0-.75.75v8.497a.751.751 0 0 0 1.5 0V11.75a.75.75 0 0 0-.75-.75m4.15 0c-.69 0-1.25.56-1.25 1.25v7.997a.75.75 0 0 0 1.5 0v-3.498h3.029a.751.751 0 0 0 0-1.5H21V12.5h3.714a.75.75 0 0 0 0-1.5z"/></svg>
